icon-themes/breeze_svg/cmd/32/starshapes.star12.svg

<svg viewBox="0 0 32 32" xmlns="http://www.w3.org/2000/svg"><path d="m16 4-1.546875 6.1875-4.453125-4.59375 1.734375 6.140625-6.140625-1.734375 4.59375 4.453125-6.1875 1.546875 6.1875 1.546875-4.59375 4.453125 6.140625-1.734375-1.734375 6.140625 4.453125-4.59375.046875.1875v-3-.65625-.84375l1.5-1.5h2.945312.949219.605469 7.5l-6.1875-1.546875 4.59375-4.453125-6.140625 1.734375 1.734375-6.140625-4.453125 4.59375zm1.943359 13.5-2.394531.734375v1.066406l.013672.728516 1.957031-.589844c0 .33465.007813 8.560547.007813 8.560547h1.765625s-.061241-7.06095.005859-10.5zm6.791016 0c-.37131 0-.781256.056375-1.228516.171875-.44726.11505-.946167.30565-1.460937.53125v1.580078c.50633-.30855 1.05696-.482815 1.5-.634765.44725-.151501.794472-.169922 1.195312-.169922.5654 0 .909546.058846 1.259766.404296.35443.345451.511719.58291.511719 1.13086 0 .33615-.118643.622706-.283203.972656-.16033.34545-.313377.540919-.722657 1.042969-.32921.3621-.799012.957162-1.638671 1.882812-.835441.92115-1.362427 1.561425-1.847657 2.109375l-.019531 1.478516h6v-1.554688l-4.138672.056641c1.02954-1.1466 1.502959-1.714059 2.06836-2.349609.5654-.64005.902332-1.026656 1.007812-1.160156.38397-.515851.647556-.962294.791016-1.339844.14772-.3822.220703-.785235.220703-1.208985 0-.89355-.290767-1.608428-.873047-2.142578s-1.362897-.800781-2.341797-.800781z" fill="#4d4d4d"/></svg>

<svg xmlns="http://www.w3.org/2000/svg" viewBox="0 0 32 32">
 <path 
     style="fill:#4d4d4d" 
     d="M 16 4 L 14.453125 10.1875 L 10 5.59375 L 11.734375 11.734375 L 5.59375 10 L 10.1875 14.453125 L 4 16 L 10.1875 17.546875 L 5.59375 22 L 11.734375 20.265625 L 10 26.40625 L 14.453125 21.8125 L 14.5 22 L 14.5 19 L 14.5 18.34375 L 14.5 17.5 L 16 16 L 18.945312 16 L 19.894531 16 L 20.5 16 L 28 16 L 21.8125 14.453125 L 26.40625 10 L 20.265625 11.734375 L 22 5.59375 L 17.546875 10.1875 L 16 4 z M 17.943359 17.5 L 15.548828 18.234375 L 15.548828 19.300781 L 15.5625 20.029297 L 17.519531 19.439453 C 17.519531 19.774103 17.527344 28 17.527344 28 L 19.292969 28 C 19.292969 28 19.231728 20.93905 19.298828 17.5 L 17.943359 17.5 z M 24.734375 17.5 C 24.363065 17.5 23.953119 17.556375 23.505859 17.671875 C 23.058599 17.786925 22.559692 17.977525 22.044922 18.203125 L 22.044922 19.783203 C 22.551252 19.474653 23.101882 19.300388 23.544922 19.148438 C 23.992172 18.996937 24.339394 18.978516 24.740234 18.978516 C 25.305634 18.978516 25.64978 19.037362 26 19.382812 C 26.35443 19.728263 26.511719 19.965722 26.511719 20.513672 C 26.511719 20.849822 26.393076 21.136378 26.228516 21.486328 C 26.068186 21.831778 25.915139 22.027247 25.505859 22.529297 C 25.176649 22.891397 24.706847 23.486459 23.867188 24.412109 C 23.031747 25.333259 22.504761 25.973534 22.019531 26.521484 L 22 28 L 28 28 L 28 26.445312 L 23.861328 26.501953 C 24.890868 25.355353 25.364287 24.787894 25.929688 24.152344 C 26.495088 23.512294 26.83202 23.125688 26.9375 22.992188 C 27.32147 22.476337 27.585056 22.029894 27.728516 21.652344 C 27.876236 21.270144 27.949219 20.867109 27.949219 20.443359 C 27.949219 19.549809 27.658452 18.834931 27.076172 18.300781 C 26.493892 17.766631 25.713275 17.5 24.734375 17.5 z "
     />
</svg>
